Numix-Circle/48x48/apps/phpstorm.svg

<?xml version="1.0" encoding="UTF-8" standalone="no"?>
<!-- Created with Inkscape (http://www.inkscape.org/) -->

<svg
   xmlns:dc="http://purl.org/dc/elements/1.1/"
   xmlns:cc="http://creativecommons.org/ns#"
   xmlns:rdf="http://www.w3.org/1999/02/22-rdf-syntax-ns#"
   xmlns:svg="http://www.w3.org/2000/svg"
   xmlns="http://www.w3.org/2000/svg"
   xmlns:xlink="http://www.w3.org/1999/xlink"
   xmlns:sodipodi="http://sodipodi.sourceforge.net/DTD/sodipodi-0.dtd"
   xmlns:inkscape="http://www.inkscape.org/namespaces/inkscape"
   width="46.998001"
   height="47"
   id="svg2"
   version="1.1"
   inkscape:version="0.48.5 r10040"
   sodipodi:docname="phpstorm.svg">
  <defs
     id="defs4">
    <clipPath
       id="clipPath-666070908">
      <g
         id="g3093"
         transform="translate(0,-1004.3622)">
        <path
           id="path3095"
           transform="matrix(15.333333,0,0,11.5,414.99999,878.8622)"
           d="m -24,13 c 0,1.105 -0.672,2 -1.5,2 -0.828,0 -1.5,-0.895 -1.5,-2 0,-1.105 0.672,-2 1.5,-2 0.828,0 1.5,0.895 1.5,2 z"
           inkscape:connector-curvature="0"
           style="fill:#1890d0" />
      </g>
    </clipPath>
    <clipPath
       id="clipPath-658135900">
      <g
         id="g3088"
         transform="translate(0,-1004.3622)">
        <path
           id="path3090"
           transform="matrix(15.333333,0,0,11.5,414.99999,878.8622)"
           d="m -24,13 c 0,1.105 -0.672,2 -1.5,2 -0.828,0 -1.5,-0.895 -1.5,-2 0,-1.105 0.672,-2 1.5,-2 0.828,0 1.5,0.895 1.5,2 z"
           inkscape:connector-curvature="0"
           style="fill:#1890d0" />
      </g>
    </clipPath>
    <linearGradient
       gradientTransform="matrix(0,-1,1,0,-1.5e-6,47.999998)"
       gradientUnits="userSpaceOnUse"
       x2="47"
       x1="1"
       id="linearGradient3764">
      <stop
         id="stop3083"
         stop-opacity="1"
         stop-color="#e4e4e4" />
      <stop
         id="stop3085"
         stop-opacity="1"
         stop-color="#eee"
         offset="1" />
    </linearGradient>
    <linearGradient
       inkscape:collect="always"
       xlink:href="#linearGradient3764"
       id="linearGradient3227"
       gradientUnits="userSpaceOnUse"
       gradientTransform="matrix(0,-1,1,0,-1.5e-6,47.999998)"
       x1="1"
       x2="47" />
    <clipPath
       id="clipPath-658135900-3">
      <g
         id="g3088-0"
         transform="translate(0,-1004.3622)">
        <path
           style="fill:#1890d0"
           inkscape:connector-curvature="0"
           id="path3090-1"
           transform="matrix(15.333333,0,0,11.5,414.99999,878.8622)"
           d="m -24,13 c 0,1.105 -0.672,2 -1.5,2 -0.828,0 -1.5,-0.895 -1.5,-2 0,-1.105 0.672,-2 1.5,-2 0.828,0 1.5,0.895 1.5,2 z" />
      </g>
    </clipPath>
    <linearGradient
       inkscape:collect="always"
       xlink:href="#linearGradient3764"
       id="linearGradient4146"
       gradientUnits="userSpaceOnUse"
       gradientTransform="matrix(0,-1,1,0,-1.5e-6,47.999998)"
       x1="1"
       x2="47" />
    <linearGradient
       inkscape:collect="always"
       xlink:href="#linearGradient3764-2"
       id="linearGradient4146-1"
       gradientUnits="userSpaceOnUse"
       gradientTransform="matrix(0,-1,1,0,-1.5e-6,47.999998)"
       x1="1"
       x2="47" />
    <linearGradient
       gradientTransform="matrix(0,-1,1,0,-1.5e-6,47.999998)"
       gradientUnits="userSpaceOnUse"
       x2="47"
       x1="1"
       id="linearGradient3764-2">
      <stop
         id="stop3083-9"
         stop-opacity="1"
         stop-color="#e4e4e4" />
      <stop
         id="stop3085-2"
         stop-opacity="1"
         stop-color="#eee"
         offset="1" />
    </linearGradient>
    <linearGradient
       x2="47"
       x1="1"
       gradientTransform="matrix(0,-1,1,0,-1.5e-6,47.999998)"
       gradientUnits="userSpaceOnUse"
       id="linearGradient4208"
       xlink:href="#linearGradient3764-2"
       inkscape:collect="always" />
    <linearGradient
       x2="47"
       x1="1"
       gradientTransform="matrix(0,-1,1,0,-1.5e-6,47.999998)"
       gradientUnits="userSpaceOnUse"
       id="linearGradient4208-8"
       xlink:href="#linearGradient3764-2-4"
       inkscape:collect="always" />
    <linearGradient
       gradientTransform="matrix(0,-1,1,0,-1.5e-6,47.999998)"
       gradientUnits="userSpaceOnUse"
       x2="47"
       x1="1"
       id="linearGradient3764-2-4">
      <stop
         id="stop3083-9-9"
         stop-opacity="1"
         stop-color="#e4e4e4" />
      <stop
         id="stop3085-2-3"
         stop-opacity="1"
         stop-color="#eee"
         offset="1" />
    </linearGradient>
    <linearGradient
       x2="47"
       x1="1"
       gradientTransform="matrix(0,-1,1,0,-1.5e-6,47.999998)"
       gradientUnits="userSpaceOnUse"
       id="linearGradient4245"
       xlink:href="#linearGradient3764-2-4"
       inkscape:collect="always" />
    <linearGradient
       inkscape:collect="always"
       xlink:href="#linearGradient3764-2-4"
       id="linearGradient4289"
       gradientUnits="userSpaceOnUse"
       gradientTransform="matrix(0,-1,1,0,-1.5e-6,47.999998)"
       x1="1"
       x2="47" />
    <linearGradient
       inkscape:collect="always"
       xlink:href="#linearGradient3764-2-4"
       id="linearGradient4326"
       gradientUnits="userSpaceOnUse"
       gradientTransform="matrix(0,-1,1,0,-1.5e-6,47.999998)"
       x1="1"
       x2="47" />
    <linearGradient
       inkscape:collect="always"
       xlink:href="#linearGradient3764"
       id="linearGradient4332"
       gradientUnits="userSpaceOnUse"
       gradientTransform="matrix(0,-1,1,0,-1.5e-6,47.999998)"
       x1="1"
       x2="47" />
    <linearGradient
       inkscape:collect="always"
       xlink:href="#linearGradient3764"
       id="linearGradient4372"
       gradientUnits="userSpaceOnUse"
       gradientTransform="matrix(0,-1,1,0,-1.5e-6,47.999998)"
       x1="1"
       x2="47" />
    <linearGradient
       inkscape:collect="always"
       xlink:href="#linearGradient3764"
       id="linearGradient4414"
       gradientUnits="userSpaceOnUse"
       gradientTransform="matrix(0,-1,1,0,-1.5e-6,47.999998)"
       x1="1"
       x2="47" />
    <linearGradient
       inkscape:collect="always"
       xlink:href="#linearGradient3764"
       id="linearGradient4436"
       gradientUnits="userSpaceOnUse"
       gradientTransform="matrix(0,-1,1,0,-1.5e-6,47.999998)"
       x1="1"
       x2="47" />
    <linearGradient
       inkscape:collect="always"
       xlink:href="#linearGradient3764"
       id="linearGradient3064"
       gradientUnits="userSpaceOnUse"
       gradientTransform="matrix(0,-1,1,0,-1.5e-6,47.999998)"
       x1="1"
       x2="47" />
    <linearGradient
       inkscape:collect="always"
       xlink:href="#linearGradient3764"
       id="linearGradient3076"
       gradientUnits="userSpaceOnUse"
       gradientTransform="matrix(0,-1,1,0,-1.5e-6,47.999998)"
       x1="1"
       x2="47" />
    <linearGradient
       inkscape:collect="always"
       xlink:href="#linearGradient3764"
       id="linearGradient3079"
       gradientUnits="userSpaceOnUse"
       gradientTransform="matrix(0,-1,1,0,458.96529,413.00504)"
       x1="1"
       x2="47" />
  </defs>
  <sodipodi:namedview
     id="base"
     pagecolor="#ffffff"
     bordercolor="#666666"
     borderopacity="1.0"
     inkscape:pageopacity="0.0"
     inkscape:pageshadow="2"
     inkscape:zoom="16"
     inkscape:cx="22.21346"
     inkscape:cy="28.346187"
     inkscape:document-units="px"
     inkscape:current-layer="layer1"
     showgrid="true"
     inkscape:snap-bbox="true"
     inkscape:bbox-nodes="true"
     showguides="true"
     inkscape:guide-bbox="true"
     inkscape:object-nodes="true"
     fit-margin-top="0"
     fit-margin-left="0"
     fit-margin-right="0"
     fit-margin-bottom="0"
     inkscape:window-width="1280"
     inkscape:window-height="998"
     inkscape:window-x="0"
     inkscape:window-y="0"
     inkscape:window-maximized="1"
     showborder="true"
     borderlayer="false"
     inkscape:showpageshadow="false">
    <inkscape:grid
       type="xygrid"
       id="grid3035" />
  </sodipodi:namedview>
  <metadata
     id="metadata7">
    <rdf:RDF>
      <cc:Work
         rdf:about="">
        <dc:format>image/svg+xml</dc:format>
        <dc:type
           rdf:resource="http://purl.org/dc/dcmitype/StillImage" />
        <dc:title />
      </cc:Work>
    </rdf:RDF>
  </metadata>
  <g
     inkscape:label="Layer 1"
     inkscape:groupmode="layer"
     id="layer1"
     transform="translate(-459.96529,-366.00504)">
    <path
       style="opacity:0.05"
       inkscape:connector-curvature="0"
       d="m 495.27529,370.00504 c 5.859,4.062 9.688,10.831 9.688,18.5 0,12.426 -10.07,22.5 -22.5,22.5 -7.669,0 -14.438,-3.828 -18.5,-9.688 1.037,1.822 2.306,3.499 3.781,4.969 4.085,3.712 9.514,5.969 15.469,5.969 12.703,0 23,-10.298 23,-23 0,-5.954 -2.256,-11.384 -5.969,-15.469 -1.469,-1.475 -3.147,-2.744 -4.969,-3.781 z m 4.969,3.781 c 3.854,4.113 6.219,9.637 6.219,15.719 0,12.703 -10.297,23 -23,23 -6.081,0 -11.606,-2.364 -15.719,-6.219 4.16,4.144 9.883,6.719 16.219,6.719 12.703,0 23,-10.298 23,-23 0,-6.335 -2.575,-12.06 -6.719,-16.219 z"
       id="path3179" />
    <path
       style="opacity:0.1"
       inkscape:connector-curvature="0"
       d="m 500.24529,373.78604 c 3.712,4.085 5.969,9.514 5.969,15.469 0,12.703 -10.297,23 -23,23 -5.954,0 -11.384,-2.256 -15.469,-5.969 4.113,3.854 9.637,6.219 15.719,6.219 12.703,0 23,-10.298 23,-23 0,-6.081 -2.364,-11.606 -6.219,-15.719 z"
       id="path3181" />
    <path
       style="opacity:0.2"
       inkscape:connector-curvature="0"
       d="m 490.21529,367.38004 c 8.615,3.154 14.75,11.417 14.75,21.13 0,12.426 -10.07,22.5 -22.5,22.5 -9.708,0 -17.971,-6.135 -21.12,-14.75 a 23,23 0 0 0 44.875,-7 23,23 0 0 0 -16,-21.875 z"
       id="path3183" />
    <path
       style="fill:url(#linearGradient3079);fill-opacity:1"
       inkscape:connector-curvature="0"
       d="m 482.96529,366.00504 c 12.703,0 23,10.297 23,23 0,12.703 -10.297,23 -23,23 -12.703,0 -23,-10.297 -23,-23 0,-12.703 10.297,-23 23,-23 z"
       id="path3187" />
    <path
       style="opacity:0.1"
       inkscape:connector-curvature="0"
       d="m 498.99529,372.53604 c 3.712,4.084 5.969,9.514 5.969,15.469 0,12.703 -10.297,23 -23,23 -5.954,0 -11.384,-2.256 -15.469,-5.969 4.178,4.291 10.01,6.969 16.469,6.969 12.703,0 23,-10.298 23,-23 0,-6.462 -2.677,-12.291 -6.969,-16.469 z"
       id="path3217" />
    <path
       style="fill:#000000;fill-opacity:0.09803922"
       d="m 489.15279,380.00504 c -0.5829,0.63225 -1.48589,3.21062 -1.53125,4.625 l 0.0312,0.65625 c 0,0.97401 0.71875,2.40625 0.71875,2.40625 0.10952,0.25445 0.48198,0.7975 0.71875,1.125 l -0.0312,0 c 0.0785,0.10329 0.125,0.15625 0.125,0.15625 0.69952,0.79704 1.78281,1.67749 2.25,2.25 0.54633,0.67202 0.56526,1.32376 0.59375,1.8125 0.0801,1.32294 -0.48705,2.12464 -1.0625,2.90625 -0.8695,1.1806 -1.17461,1.38378 -1.84375,2.15625 -0.42763,0.49189 -0.58506,0.54348 -0.875,0.90625 l 6.71875,0 c 0.39376,-0.50385 0.73708,-1.09354 1.1875,-1.9375 0.59127,-1.11006 1.07784,-1.92624 1.125,-3.96875 l 0,-0.65625 c 0,-0.97402 -0.71875,-2.40625 -0.71875,-2.40625 -0.10984,-0.25414 -0.4804,-0.79528 -0.71875,-1.125 -0.0642,-0.0854 -0.125,-0.15625 -0.125,-0.15625 -0.69794,-0.79704 -1.75314,-1.70875 -2.21875,-2.28125 -0.54696,-0.67076 -0.56463,-1.29062 -0.59375,-1.78125 -0.0791,-1.32294 0.4558,-2.12495 1.03125,-2.90625 0.72402,-0.93687 1.29642,-1.39997 2.03125,-1.78125 l -6.8125,0 z m -19.1875,5 0,14 1,0 0,-10 2,0 0,1 c 0.39186,-0.65753 0.99221,-0.90625 1.53125,-0.90625 0.95718,0 1.46875,0.57733 1.46875,1.90625 l 0,3 c 0,1.12297 -0.59798,2.03125 -1.46875,2.03125 -0.50201,0 -1.11502,-0.1812 -1.53125,-0.71875 l 0,3.6875 10,0 0,-10 2,0 0,1 c 0.39186,-0.65753 0.99221,-0.90625 1.53125,-0.90625 0.95718,0 1.46875,0.57733 1.46875,1.90625 l 0,3 c 0,1.12297 -0.59798,2.03125 -1.46875,2.03125 -0.50201,0 -1.11502,-0.1812 -1.53125,-0.71875 l 0,3.6875 2,0 0.3125,-0.25 c 0.25575,-0.31932 0.58014,-0.68405 0.9375,-1.09375 l 0.15625,-0.1875 c 0.2222,-0.25571 0.41586,-0.46479 0.59375,-0.65625 0.35451,-0.37979 0.66039,-0.71076 1.21875,-1.46875 0.54854,-0.74319 0.90105,-1.28889 0.84375,-2.25 -0.0291,-0.49315 -0.0518,-0.85258 -0.375,-1.25 -0.19466,-0.23902 -0.55387,-0.57126 -0.9375,-0.9375 -0.41465,-0.39805 -0.76191,-0.77676 -1.25,-1.28125 -0.48903,-0.50637 -1.125,-1.8125 -1.125,-1.8125 -0.21999,-0.49976 -0.65625,-1.61297 -0.65625,-2.53125 l -0.0312,-0.28125 -7.6875,0 0,4 c 0.36686,-0.4629 0.82159,-0.505 1.3125,-0.5 1.31872,0.0139 1.6875,1.47591 1.6875,2.5 l 0,5 -2,0 0,-5 c -0.0443,-0.41205 -0.18094,-0.59375 -0.5,-0.59375 -0.35736,0 -0.5,0.21524 -0.5,0.59375 l 0,5 -2,0 0,-11 -7,0 z m 3.75,5.59375 c -0.36812,0 -0.75,0.28848 -0.75,0.8125 l 0,2.375 c 0,0.52464 0.38188,0.75 0.75,0.75 0.36686,0 0.75,-0.22504 0.75,-0.75 l 0,-2.375 c 0,-0.52402 -0.38314,-0.8125 -0.75,-0.8125 z m 12,0 c -0.36812,0 -0.75,0.28848 -0.75,0.8125 l 0,2.375 c 0,0.52464 0.38188,0.75 0.75,0.75 0.36686,0 0.75,-0.22504 0.75,-0.75 l 0,-2.375 c 0,-0.52402 -0.38314,-0.8125 -0.75,-0.8125 z"
       id="path3127"
       inkscape:connector-curvature="0" />
    <path
       style="fill:#5e64b2"
       d="M 9 18 L 9 32 L 10 32 L 10 22 L 12 22 L 12 23 C 12.39186 22.34247 12.99221 22.09375 13.53125 22.09375 C 14.48843 22.09375 15 22.67108 15 24 L 15 27 C 15 28.12297 14.40202 29.03125 13.53125 29.03125 C 13.02924 29.03125 12.41623 28.85005 12 28.3125 L 12 32 L 22 32 L 22 22 L 24 22 L 24 23 C 24.39186 22.34247 24.99221 22.09375 25.53125 22.09375 C 26.48843 22.09375 27 22.67108 27 24 L 27 27 C 27 28.12297 26.40202 29.03125 25.53125 29.03125 C 25.02924 29.03125 24.41623 28.85005 24 28.3125 L 24 32 L 26 32 L 26.3125 31.75 C 26.56825 31.43068 26.89264 31.06595 27.25 30.65625 L 27.40625 30.46875 C 27.62845 30.21304 27.82211 30.00396 28 29.8125 C 28.35451 29.43271 28.66039 29.10174 29.21875 28.34375 C 29.76729 27.60056 30.1198 27.05486 30.0625 26.09375 C 30.03338 25.6006 30.01068 25.24117 29.6875 24.84375 C 29.49284 24.60473 29.13363 24.27249 28.75 23.90625 C 28.33535 23.5082 27.98809 23.12949 27.5 22.625 C 27.01097 22.11863 26.375 20.8125 26.375 20.8125 C 26.15501 20.31274 25.71875 19.19953 25.71875 18.28125 L 25.6875 18 L 18 18 L 18 22 C 18.36686 21.5371 18.82159 21.495 19.3125 21.5 C 20.63122 21.51386 21 22.97591 21 24 L 21 29 L 19 29 L 19 24 C 18.95574 23.58795 18.81906 23.40625 18.5 23.40625 C 18.14264 23.40625 18 23.62149 18 24 L 18 29 L 16 29 L 16 18 L 9 18 z M 12.75 23.59375 C 12.38188 23.59375 12 23.88223 12 24.40625 L 12 26.78125 C 12 27.30589 12.38188 27.53125 12.75 27.53125 C 13.11686 27.53125 13.5 27.30621 13.5 26.78125 L 13.5 24.40625 C 13.5 23.88223 13.11686 23.59375 12.75 23.59375 z M 24.75 23.59375 C 24.38188 23.59375 24 23.88223 24 24.40625 L 24 26.78125 C 24 27.30589 24.38188 27.53125 24.75 27.53125 C 25.11686 27.53125 25.5 27.30621 25.5 26.78125 L 25.5 24.40625 C 25.5 23.88223 25.11686 23.59375 24.75 23.59375 z "
       transform="translate(459.96529,366.00504)"
       id="path3223" />
    <path
       inkscape:connector-curvature="0"
       style="fill:#fa930d"
       d="m 494.96529,379.00504 -6.8,0 c -0.5829,0.63225 -1.48414,3.20508 -1.5295,4.61946 l 0.0209,0.65911 c 0,0.97401 0.70174,2.40497 0.70174,2.40497 0.10952,0.25445 0.47954,0.79043 0.71631,1.11793 l -0.006,0 c 0.0785,0.10329 0.12946,0.16974 0.12946,0.16974 0.69952,0.79704 1.75831,1.68792 2.2255,2.26043 0.54633,0.67202 0.56057,1.30058 0.58906,1.78932 0.0801,1.32294 -0.45896,2.12093 -1.03441,2.90254 -0.8695,1.1806 -1.18381,1.39978 -1.85295,2.17225 -0.42763,0.49189 -0.57883,0.54148 -0.86877,0.90425 l 6.70532,0 c 0.39376,-0.50385 0.75292,-1.08154 1.20334,-1.9255 0.59127,-1.11006 1.07872,-1.94395 1.12588,-3.98646 l -0.0212,-0.65911 c 0,-0.97402 -0.70016,-2.40686 -0.70016,-2.40686 -0.10984,-0.25414 -0.48017,-0.78759 -0.71852,-1.11731 l 0.005,0 c -0.0763,-0.10203 -0.12915,-0.16973 -0.12915,-0.16973 -0.69794,-0.79704 -1.75831,-1.68793 -2.22392,-2.26043 -0.54696,-0.67076 -0.56215,-1.29933 -0.59127,-1.78996 -0.0791,-1.32294 0.45896,-2.12092 1.03441,-2.90222 0.72402,-0.93687 1.2841,-1.40114 2.01893,-1.78242 z"
       id="path3225"
       sodipodi:nodetypes="ccccccccccccccccccccccccc" />
    <g
       style="fill:#cfcfcf;fill-opacity:1"
       transform="translate(549.60494,367.0511)"
       id="g4328" />
    <g
       id="g4334"
       transform="translate(68,0)" />
    <g
       id="g4376"
       transform="translate(80,0)" />
  </g>
</svg>

<!-- Created with Inkscape (http://www.inkscape.org/) --><svg xmlns="http://www.w3.org/2000/svg" viewBox="0 0 46.998 47"><defs><clipPath><g transform="translate(0,-1004.3622)"><path transform="matrix(15.333333,0,0,11.5,414.99999,878.8622)" d="m -24 13 c 0 1.105 -0.672 2 -1.5 2 -0.828 0 -1.5 -0.895 -1.5 -2 0 -1.105 0.672 -2 1.5 -2 0.828 0 1.5 0.895 1.5 2 z" fill="#1890d0"/></g></clipPath><clipPath><g transform="translate(0,-1004.3622)"><path transform="matrix(15.333333,0,0,11.5,414.99999,878.8622)" d="m -24 13 c 0 1.105 -0.672 2 -1.5 2 -0.828 0 -1.5 -0.895 -1.5 -2 0 -1.105 0.672 -2 1.5 -2 0.828 0 1.5 0.895 1.5 2 z" fill="#1890d0"/></g></clipPath><clipPath><g transform="translate(0,-1004.3622)"><path transform="matrix(15.333333,0,0,11.5,414.99999,878.8622)" d="m -24 13 c 0 1.105 -0.672 2 -1.5 2 -0.828 0 -1.5 -0.895 -1.5 -2 0 -1.105 0.672 -2 1.5 -2 0.828 0 1.5 0.895 1.5 2 z" fill="#1890d0"/></g></clipPath><linearGradient id="linearGradient3079" gradientUnits="userSpaceOnUse" gradientTransform="matrix(0,-1,1,0,458.96529,413.00504)" x1="1" x2="47"><stop stop-opacity="1" stop-color="#e4e4e4"/><stop stop-opacity="1" stop-color="#eee" offset="1"/></linearGradient></defs><g transform="translate(-459.96529,-366.00504)"><path d="m 495.28 370.01 c 5.859 4.062 9.688 10.831 9.688 18.5 0 12.426 -10.07 22.5 -22.5 22.5 -7.669 0 -14.438 -3.828 -18.5 -9.688 1.037 1.822 2.306 3.499 3.781 4.969 4.085 3.712 9.514 5.969 15.469 5.969 12.703 0 23 -10.298 23 -23 0 -5.954 -2.256 -11.384 -5.969 -15.469 -1.469 -1.475 -3.147 -2.744 -4.969 -3.781 z m 4.969 3.781 c 3.854 4.113 6.219 9.637 6.219 15.719 0 12.703 -10.297 23 -23 23 -6.081 0 -11.606 -2.364 -15.719 -6.219 4.16 4.144 9.883 6.719 16.219 6.719 12.703 0 23 -10.298 23 -23 0 -6.335 -2.575 -12.06 -6.719 -16.219 z" opacity="0.05"/><path d="m 500.25 373.79 c 3.712 4.085 5.969 9.514 5.969 15.469 0 12.703 -10.297 23 -23 23 -5.954 0 -11.384 -2.256 -15.469 -5.969 4.113 3.854 9.637 6.219 15.719 6.219 12.703 0 23 -10.298 23 -23 0 -6.081 -2.364 -11.606 -6.219 -15.719 z" opacity="0.1"/><path d="m 490.22 367.38 c 8.615 3.154 14.75 11.417 14.75 21.13 0 12.426 -10.07 22.5 -22.5 22.5 -9.708 0 -17.971 -6.135 -21.12 -14.75 a 23 23 0 0 0 44.875 -7 23 23 0 0 0 -16 -21.875 z" opacity="0.2"/><path d="m 482.97 366.01 c 12.703 0 23 10.297 23 23 0 12.703 -10.297 23 -23 23 -12.703 0 -23 -10.297 -23 -23 0 -12.703 10.297 -23 23 -23 z" fill="url(#linearGradient3079)" fill-opacity="1"/><path d="m 499 372.54 c 3.712 4.084 5.969 9.514 5.969 15.469 0 12.703 -10.297 23 -23 23 -5.954 0 -11.384 -2.256 -15.469 -5.969 4.178 4.291 10.01 6.969 16.469 6.969 12.703 0 23 -10.298 23 -23 0 -6.462 -2.677 -12.291 -6.969 -16.469 z" opacity="0.1"/><path d="m 489.15 380.01 c -0.583 0.632 -1.486 3.211 -1.531 4.625 l 0.031 0.656 c 0 0.974 0.719 2.406 0.719 2.406 0.11 0.254 0.482 0.798 0.719 1.125 l -0.031 0 c 0.079 0.103 0.125 0.156 0.125 0.156 0.7 0.797 1.783 1.677 2.25 2.25 0.546 0.672 0.565 1.324 0.594 1.813 0.08 1.323 -0.487 2.125 -1.063 2.906 -0.87 1.181 -1.175 1.384 -1.844 2.156 -0.428 0.492 -0.585 0.543 -0.875 0.906 l 6.719 0 c 0.394 -0.504 0.737 -1.094 1.188 -1.938 0.591 -1.11 1.078 -1.926 1.125 -3.969 l 0 -0.656 c 0 -0.974 -0.719 -2.406 -0.719 -2.406 -0.11 -0.254 -0.48 -0.795 -0.719 -1.125 -0.064 -0.085 -0.125 -0.156 -0.125 -0.156 -0.698 -0.797 -1.753 -1.709 -2.219 -2.281 -0.547 -0.671 -0.565 -1.291 -0.594 -1.781 -0.079 -1.323 0.456 -2.125 1.031 -2.906 0.724 -0.937 1.296 -1.4 2.031 -1.781 l -6.813 0 z m -19.19 5 0 14 1 0 0 -10 2 0 0 1 c 0.392 -0.658 0.992 -0.906 1.531 -0.906 0.957 0 1.469 0.577 1.469 1.906 l 0 3 c 0 1.123 -0.598 2.031 -1.469 2.031 -0.502 0 -1.115 -0.181 -1.531 -0.719 l 0 3.688 10 0 0 -10 2 0 0 1 c 0.392 -0.658 0.992 -0.906 1.531 -0.906 0.957 0 1.469 0.577 1.469 1.906 l 0 3 c 0 1.123 -0.598 2.031 -1.469 2.031 -0.502 0 -1.115 -0.181 -1.531 -0.719 l 0 3.688 2 0 0.313 -0.25 c 0.256 -0.319 0.58 -0.684 0.938 -1.094 l 0.156 -0.188 c 0.222 -0.256 0.416 -0.465 0.594 -0.656 0.355 -0.38 0.66 -0.711 1.219 -1.469 0.549 -0.743 0.901 -1.289 0.844 -2.25 -0.029 -0.493 -0.052 -0.853 -0.375 -1.25 -0.195 -0.239 -0.554 -0.571 -0.938 -0.938 -0.415 -0.398 -0.762 -0.777 -1.25 -1.281 -0.489 -0.506 -1.125 -1.813 -1.125 -1.813 -0.22 -0.5 -0.656 -1.613 -0.656 -2.531 l -0.031 -0.281 -7.688 0 0 4 c 0.367 -0.463 0.822 -0.505 1.313 -0.5 1.319 0.014 1.688 1.476 1.688 2.5 l 0 5 -2 0 0 -5 c -0.044 -0.412 -0.181 -0.594 -0.5 -0.594 -0.357 0 -0.5 0.215 -0.5 0.594 l 0 5 -2 0 0 -11 -7 0 z m 3.75 5.594 c -0.368 0 -0.75 0.288 -0.75 0.813 l 0 2.375 c 0 0.525 0.382 0.75 0.75 0.75 0.367 0 0.75 -0.225 0.75 -0.75 l 0 -2.375 c 0 -0.524 -0.383 -0.813 -0.75 -0.813 z m 12 0 c -0.368 0 -0.75 0.288 -0.75 0.813 l 0 2.375 c 0 0.525 0.382 0.75 0.75 0.75 0.367 0 0.75 -0.225 0.75 -0.75 l 0 -2.375 c 0 -0.524 -0.383 -0.813 -0.75 -0.813 z" fill="#000" fill-opacity="0.098"/><path d="m 9 18 l 0 14 l 1 0 l 0 -10 l 2 0 l 0 1 c 0.392 -0.658 0.992 -0.906 1.531 -0.906 c 0.957 0 1.469 0.577 1.469 1.906 l 0 3 c 0 1.123 -0.598 2.031 -1.469 2.031 c -0.502 0 -1.115 -0.181 -1.531 -0.719 l 0 3.688 l 10 0 l 0 -10 l 2 0 l 0 1 c 0.392 -0.658 0.992 -0.906 1.531 -0.906 c 0.957 0 1.469 0.577 1.469 1.906 l 0 3 c 0 1.123 -0.598 2.031 -1.469 2.031 c -0.502 0 -1.115 -0.181 -1.531 -0.719 l 0 3.688 l 2 0 l 0.313 -0.25 c 0.256 -0.319 0.58 -0.684 0.938 -1.094 l 0.156 -0.188 c 0.222 -0.256 0.416 -0.465 0.594 -0.656 c 0.355 -0.38 0.66 -0.711 1.219 -1.469 c 0.549 -0.743 0.901 -1.289 0.844 -2.25 c -0.029 -0.493 -0.052 -0.853 -0.375 -1.25 c -0.195 -0.239 -0.554 -0.571 -0.938 -0.938 c -0.415 -0.398 -0.762 -0.777 -1.25 -1.281 c -0.489 -0.506 -1.125 -1.813 -1.125 -1.813 c -0.22 -0.5 -0.656 -1.613 -0.656 -2.531 l -0.031 -0.281 l -7.688 0 l 0 4 c 0.367 -0.463 0.822 -0.505 1.313 -0.5 c 1.319 0.014 1.688 1.476 1.688 2.5 l 0 5 l -2 0 l 0 -5 c -0.044 -0.412 -0.181 -0.594 -0.5 -0.594 c -0.357 0 -0.5 0.215 -0.5 0.594 l 0 5 l -2 0 l 0 -11 l -7 0 z m 3.75 5.594 c -0.368 0 -0.75 0.288 -0.75 0.813 l 0 2.375 c 0 0.525 0.382 0.75 0.75 0.75 c 0.367 0 0.75 -0.225 0.75 -0.75 l 0 -2.375 c 0 -0.524 -0.383 -0.813 -0.75 -0.813 z m 12 0 c -0.368 0 -0.75 0.288 -0.75 0.813 l 0 2.375 c 0 0.525 0.382 0.75 0.75 0.75 c 0.367 0 0.75 -0.225 0.75 -0.75 l 0 -2.375 c 0 -0.524 -0.383 -0.813 -0.75 -0.813 z" transform="translate(459.96529,366.00504)" fill="#5e64b2"/><path d="m 494.97 379.01 -6.8 0 c -0.583 0.632 -1.484 3.205 -1.529 4.619 l 0.021 0.659 c 0 0.974 0.702 2.405 0.702 2.405 0.11 0.254 0.48 0.79 0.716 1.118 l -0.006 0 c 0.079 0.103 0.129 0.17 0.129 0.17 0.7 0.797 1.758 1.688 2.226 2.26 0.546 0.672 0.561 1.301 0.589 1.789 0.08 1.323 -0.459 2.121 -1.034 2.903 -0.87 1.181 -1.184 1.4 -1.853 2.172 -0.428 0.492 -0.579 0.541 -0.869 0.904 l 6.705 0 c 0.394 -0.504 0.753 -1.082 1.203 -1.925 0.591 -1.11 1.079 -1.944 1.126 -3.986 l -0.021 -0.659 c 0 -0.974 -0.7 -2.407 -0.7 -2.407 -0.11 -0.254 -0.48 -0.788 -0.719 -1.117 l 0.005 0 c -0.076 -0.102 -0.129 -0.17 -0.129 -0.17 -0.698 -0.797 -1.758 -1.688 -2.224 -2.26 -0.547 -0.671 -0.562 -1.299 -0.591 -1.79 -0.079 -1.323 0.459 -2.121 1.034 -2.902 0.724 -0.937 1.284 -1.401 2.02 -1.782 z" fill="#fa930d"/></g></svg>
